img/Account.svg

<svg width="20" height="20" viewBox="0 0 20 20" fill="none" xmlns="http://www.w3.org/2000/svg">
<path fill-rule="evenodd" clip-rule="evenodd" d="M10 0C7.35804 0 5.20825 2.14979 5.20825 4.79176C5.20825 7.43372 7.35803 9.58333 10 9.58333C12.642 9.58333 14.7918 7.43372 14.7918 4.79176C14.7918 2.14979 12.642 0 10 0ZM6.2755 4.79176C6.2755 2.73768 7.94613 1.06724 10 1.06724C12.0539 1.06724 13.7245 2.73768 13.7245 4.79176C13.7245 6.84566 12.0539 8.51609 10 8.51609C7.94614 8.51609 6.2755 6.84566 6.2755 4.79176Z" fill="#FF7010"/>
<path fill-rule="evenodd" clip-rule="evenodd" d="M5.96381 11.6665C3.59468 11.6665 1.66663 13.6453 1.66663 16.0768V19.4881C1.66663 19.7705 1.89005 19.9998 2.1652 19.9998H17.8347C18.1099 19.9998 18.3333 19.7705 18.3333 19.4881V16.0768C18.3333 13.6453 16.4052 11.6665 14.0361 11.6665H5.96381ZM2.66378 16.0768C2.66378 14.2092 4.14412 12.6899 5.96381 12.6899H14.0361C15.8558 12.6899 17.3361 14.2092 17.3361 16.0768V18.9764H2.66378V16.0768Z" fill="#FF7010"/>
</svg>

<svg width="20" height="20" fill="none" xmlns="http://www.w3.org/2000/svg"><path fill-rule="evenodd" clip-rule="evenodd" d="M10 0a4.797 4.797 0 0 0-4.792 4.792A4.797 4.797 0 0 0 10 9.583a4.797 4.797 0 0 0 4.792-4.791A4.797 4.797 0 0 0 10 0ZM6.276 4.792A3.728 3.728 0 0 1 10 1.067a3.728 3.728 0 0 1 3.725 3.725A3.728 3.728 0 0 1 10 8.516a3.728 3.728 0 0 1-3.724-3.724ZM5.964 11.666c-2.37 0-4.297 1.98-4.297 4.41v3.412c0 .282.223.512.498.512h15.67c.275 0 .498-.23.498-.512v-3.411c0-2.432-1.928-4.41-4.297-4.41H5.964Zm-3.3 4.41c0-1.867 1.48-3.386 3.3-3.386h8.072c1.82 0 3.3 1.52 3.3 3.387v2.9H2.664v-2.9Z" fill="#FF7010"/></svg>
